X: 21115
T: Kapunda Rifle Schottische
R: barndance
M: 4/4
K: Gmajor
"G" B2 AB "D7" c>B c>A|"G" d2 DG B4|"D7" c2 DF A4|"G" B2 BD G4|
"G" B2 AB "D7" c>B c>A|"G" d2 DG B4|"D7" c2 DF A4|"G" G>F G>A G4:|
"G" g3 f "C" e>d "A7" ^c>d|"Em" edgb"G" d3 d|"D7" dcfa c3 c|"G" cBdg B3 B|
"G" g3 f "C" e>d "A7" ^c>d|"Em" edgb"G" d3 d|"D7" dcfa c3 c|"G" g2 g>g g4:|
"G" BdBd Bdgf|"C" e2 c>c c2 cB|"D7" AcAc Acfe|"G" d2 B>B B2 dc|
"G" BdBd Bdba|"C" g2 e>e e4|"D7" feAc edFA|"G" G2 G>G G2 d2:|

